exports/number-of-people-with-autism_v1_850x600.svg

<svg xmlns="http://www.w3.org/2000/svg" version="1.1" style="background-color:#fff;-webkit-font-smoothing:antialiased" width="850" height="600" font-family="'Helvetica Neue',Helvetica,Arial,sans-serif" font-size="18" text-rendering="optimizeLegibility"><g class="ChartTab"><g class="HeaderView"><g opacity=".8" transform="matrix(.27 0 0 .27 778 15)"><a xmlns:xlink="http://www.w3.org/1999/xlink" xlink:href="https://ourworldindata.org" target="_blank"><g><path fill="#1B2543" d="M0 0h211.2v130.1H0z"/><path fill="#E63912" d="M0 112.2h211.2v17.9H0z"/><g><path fill="none" d="M1.2 12.3h210.2v99.2H1.2z"/><path fill="#FFF" d="M37.8 32.2c0 12.7-7.7 19.4-17.1 19.4-9.7 0-16.6-7.5-16.6-18.7 0-11.7 7.3-19.3 17.1-19.3 10.1.1 16.6 7.7 16.6 18.6zm-28.6.6c0 7.9 4.3 14.9 11.8 14.9 7.5 0 11.8-6.9 11.8-15.3 0-7.3-3.8-14.9-11.8-14.9-7.9 0-11.8 7.3-11.8 15.3zM62.7 43.8c0 2.7.1 5.1.2 7.2h-4.3l-.3-4.3h-.1c-1.3 2.1-4 4.9-8.8 4.9-4.2 0-9.1-2.3-9.1-11.6V24.6h4.8v14.6c0 5 1.5 8.4 5.9 8.4 3.2 0 5.5-2.2 6.3-4.4.3-.7.4-1.6.4-2.5V24.6h4.8v19.2zM67.3 32.8c0-3.1-.1-5.8-.2-8.2h4.2l.2 5.2h.2c1.2-3.5 4.1-5.8 7.3-5.8.5 0 .9.1 1.4.2v4.5c-.5-.1-1-.2-1.6-.2-3.4 0-5.8 2.6-6.5 6.2-.1.7-.2 1.4-.2 2.2V51h-4.8V32.8zM95.4 51L86 14.2h5l4.4 18.6c1.1 4.6 2.1 9.2 2.7 12.7h.1c.6-3.7 1.8-8 3-12.8l4.9-18.5h5l4.5 18.7c1 4.4 2 8.7 2.6 12.6h.1c.8-4 1.8-8.1 3-12.7l4.9-18.5h4.9L120.6 51h-5L111 31.9c-1.1-4.7-1.9-8.3-2.4-12h-.1c-.7 3.7-1.5 7.3-2.8 12L100.4 51h-5zM154.9 37.6c0 9.8-6.8 14-13.2 14-7.2 0-12.7-5.2-12.7-13.6 0-8.8 5.8-14 13.1-14 7.7 0 12.8 5.5 12.8 13.6zm-21 .3c0 5.8 3.3 10.1 8 10.1 4.6 0 8-4.3 8-10.3 0-4.5-2.2-10.1-7.9-10.1s-8.1 5.2-8.1 10.3zM158.2 32.8c0-3.1-.1-5.8-.2-8.2h4.2l.2 5.2h.2c1.2-3.5 4.1-5.8 7.3-5.8.5 0 .9.1 1.4.2v4.5c-.5-.1-1-.2-1.6-.2-3.4 0-5.8 2.6-6.5 6.2-.1.7-.2 1.4-.2 2.2V51h-4.8V32.8zM173.5 12.3h4.8V51h-4.8V12.3zM206.5 12.3v31.9c0 2.3.1 5 .2 6.8h-4.3l-.2-4.6h-.2c-1.5 2.9-4.7 5.2-9 5.2-6.4 0-11.3-5.4-11.3-13.4-.1-8.8 5.4-14.2 11.9-14.2 4 0 6.8 1.9 8 4h.1V12.3h4.8zm-4.8 23.1c0-.6-.1-1.4-.2-2a7 7 0 00-6.9-5.6c-5 0-7.9 4.4-7.9 10.2 0 5.3 2.6 9.8 7.8 9.8 3.2 0 6.2-2.1 7.1-5.7.2-.7.2-1.3.2-2.1v-4.6zM42.8 64c.1 1.6-1.1 2.9-3.1 2.9-1.7 0-2.9-1.3-2.9-2.9 0-1.7 1.3-3 3-3 1.9 0 3 1.3 3 3zm-5.4 33.8V71.4h4.8v26.4h-4.8zM47.5 78.6c0-2.7-.1-5-.2-7.1h4.3l.3 4.4h.1c1.3-2.5 4.4-5 8.8-5 3.7 0 9.4 2.2 9.4 11.2v15.8h-4.8V82.6c0-4.3-1.6-7.8-6.1-7.8-3.2 0-5.6 2.2-6.5 4.9-.2.6-.3 1.4-.3 2.2v15.9h-4.8V78.6zM84 61.6c2.9-.4 6.3-.8 10.1-.8 6.8 0 11.7 1.6 14.9 4.6 3.3 3 5.2 7.3 5.2 13.2 0 6-1.9 10.9-5.3 14.3-3.4 3.4-9.1 5.3-16.3 5.3-3.4 0-6.2-.2-8.6-.4V61.6zm4.8 32.5c1.2.2 3 .3 4.8.3 10.2 0 15.7-5.7 15.7-15.6.1-8.7-4.9-14.2-14.9-14.2-2.5 0-4.3.2-5.6.5v29zM132.1 97.8l-.4-3.3h-.2a9.79 9.79 0 01-8.1 3.9c-5.4 0-8.1-3.8-8.1-7.6 0-6.4 5.7-9.9 15.9-9.8v-.5c0-2.2-.6-6.1-6-6.1-2.5 0-5 .8-6.9 2l-1.1-3.2c2.2-1.4 5.4-2.3 8.7-2.3 8.1 0 10.1 5.5 10.1 10.8v9.9c0 2.3.1 4.5.4 6.3h-4.3zm-.7-13.4c-5.3-.1-11.2.8-11.2 5.9 0 3.1 2.1 4.6 4.5 4.6 3.4 0 5.6-2.2 6.4-4.4.2-.5.3-1 .3-1.5v-4.6zM146.6 63.9v7.6h6.9v3.7h-6.9v14.2c0 3.3.9 5.1 3.6 5.1 1.3 0 2.2-.2 2.8-.3l.2 3.6c-.9.4-2.4.7-4.3.7-2.2 0-4-.7-5.2-2-1.4-1.4-1.9-3.8-1.9-6.9V75.1h-4.1v-3.7h4.1v-6.3l4.8-1.2zM171.4 97.8l-.4-3.3h-.2a9.79 9.79 0 01-8.1 3.9c-5.4 0-8.1-3.8-8.1-7.6 0-6.4 5.7-9.9 15.9-9.8v-.5c0-2.2-.6-6.1-6-6.1-2.5 0-5 .8-6.9 2l-1.1-3.2c2.2-1.4 5.4-2.3 8.7-2.3 8.1 0 10.1 5.5 10.1 10.8v9.9c0 2.3.1 4.5.4 6.3h-4.3zm-.7-13.4c-5.3-.1-11.2.8-11.2 5.9 0 3.1 2.1 4.6 4.5 4.6 3.4 0 5.6-2.2 6.4-4.4.2-.5.3-1 .3-1.5v-4.6z"/></g></g></a></g><a href="https://ourworldindata.org/grapher/number-of-people-with-autism" target="_blank"><text font-size="27" x="15" y="36.6" fill="#555"><tspan x="15" y="36.6">Number of people with autism, World</tspan></text></a><text font-size="14.4" x="15" y="55.5" fill="#666"><tspan x="15" y="55.52">Number of people with autism, differentiated by sex. This metric is based on the specific definition of autism, and</tspan><tspan x="15" y="71.36">does not include those with Asperger Syndrome or other autistic spectrum disorders.</tspan></text></g><g class="StackedArea"><defs><clipPath id="a"><path d="M88.53 0h820v925.2h-820z"/></clipPath></defs><g class="AxisBoxView"><g class="HorizontalAxis" fill="#666" text-anchor="middle" font-size="16.2"><text x="88.5" y="556.5">1990</text><text x="219" y="556.5">1995</text><text x="349.4" y="556.5">2000</text><text x="479.9" y="556.5">2005</text><text x="610.4" y="556.5">2010</text><text x="766.9" y="556.5">2016</text></g><g class="VerticalAxis" fill="#666" dominant-baseline="middle" text-anchor="end" font-size="16.2"><text x="83.53" y="535.3">0</text><text x="83.53" y="487.1">2 million</text><text x="83.53" y="438.8">4 million</text><text x="83.53" y="390.6">6 million</text><text x="83.53" y="342.4">8 million</text><text x="83.53" y="294.1">10 million</text><text x="83.53" y="245.9">12 million</text><text x="83.53" y="197.7">14 million</text><text x="83.53" y="149.4">16 million</text><text x="83.53" y="101.2">18 million</text></g><g class="AxisGridLines"><path stroke="#ccc" d="M88.53 535.3H766.9"/><path stroke="#ddd" stroke-dasharray="3,2" d="M88.53 487.1H766.9M88.53 438.8H766.9M88.53 390.6H766.9M88.53 342.4H766.9M88.53 294.1H766.9M88.53 245.9H766.9M88.53 197.7H766.9M88.53 149.4H766.9M88.53 101.2H766.9"/></g><g class="AxisGridLines" stroke="#ddd" stroke-dasharray="3,2"><path d="M88.5 535.3V93.9M219 535.3V93.9M349.4 535.3V93.9M479.9 535.3V93.9M610.4 535.3V93.9M740.8 535.3V93.9"/></g></g><g clip-path="url(#a)"><g class="HeightedLegend clickable"><g class="legendMark"><path fill="#818282" d="M771.9 154.25h10v2.5h-10z"/><text font-size="14.4" x="786.9" y="159.8" fill="#333"><tspan x="786.9" y="159.82">Female</tspan></text></g><g class="legendMark"><path fill="#e6332e" d="M771.9 374.95h10v2.5h-10z"/><text font-size="14.4" x="786.9" y="380.5" fill="#333"><tspan x="786.9" y="380.52">Male</tspan></text></g></g><g class="Areas"><path d="M88.5 306l26.1-3.5 26.1-3.9 26.1-3.9 26.1-3.9 26.1-4 26.1-3.6 26.1-3.6 26.1-3.3 26-3.3 26.1-3.5 26.1-3.1 26.1-3.1 26.1-3.3 26.1-3.3 26.1-3.4 26.1-3.1 26.1-3.1 26.1-3.4 26.1-3.4 26.1-3.5 26-3.1 26.1-3.3 26.1-3.2 26.1-3.3 26.1-3.3 26.1-3.4v318.1H88.53" fill="#e6332e" fill-opacity=".7" class="World_0-area"/><path d="M88.5 216.3l26.1-4.8 26.1-5.4 26.1-5.4 26.1-5.4 26.1-5.4 26.1-5.1 26.1-4.9 26.1-4.7 26-4.5 26.1-4.9 26.1-4.2 26.1-4.3 26.1-4.6 26.1-4.4 26.1-4.7 26.1-4.3 26.1-4.3 26.1-4.6 26.1-4.7 26.1-4.8 26-4.3 26.1-4.5 26.1-4.5 26.1-4.4 26.1-4.6 26.1-4.7v123.3l-26.1 3.4-26.1 3.3-26.1 3.3-26.1 3.2-26.1 3.3-26 3.1-26.1 3.5-26.1 3.4-26.1 3.4-26.1 3.1-26.1 3.1-26.1 3.4-26.1 3.3-26.1 3.3-26.1 3.1-26.1 3.1-26.1 3.5-26 3.3-26.1 3.3-26.1 3.6-26.1 3.6-26.1 4-26.1 3.9-26.1 3.9-26.1 3.9-26.1 3.5" fill="#818282" fill-opacity=".7" class="World_1-area"/><path stroke-linecap="round" d="M88.5 306l26.1-3.5 26.1-3.9 26.1-3.9 26.1-3.9 26.1-4 26.1-3.6 26.1-3.6 26.1-3.3 26-3.3 26.1-3.5 26.1-3.1 26.1-3.1 26.1-3.3 26.1-3.3 26.1-3.4 26.1-3.1 26.1-3.1 26.1-3.4 26.1-3.4 26.1-3.5 26-3.1 26.1-3.3 26.1-3.2 26.1-3.3 26.1-3.3 26.1-3.4" stroke="#C02B26" stroke-opacity=".7" stroke-width=".5" fill="none" class="World_0-border"/><path stroke-linecap="round" d="M88.5 216.3l26.1-4.8 26.1-5.4 26.1-5.4 26.1-5.4 26.1-5.4 26.1-5.1 26.1-4.9 26.1-4.7 26-4.5 26.1-4.9 26.1-4.2 26.1-4.3 26.1-4.6 26.1-4.4 26.1-4.7 26.1-4.3 26.1-4.3 26.1-4.6 26.1-4.7 26.1-4.8 26-4.3 26.1-4.5 26.1-4.5 26.1-4.4 26.1-4.6 26.1-4.7" stroke="#6C6D6D" stroke-opacity=".7" stroke-width=".5" fill="none" class="World_1-border"/></g></g></g><g class="SourcesFooter" fill="#777"><g class="clickable" fill="#777"><text font-size="12.6" x="15" y="581.6"><tspan x="15" y="581.58">Source: IHME, Global Burden of Disease</tspan></text></g><text font-size="12.6" x="649" y="581.6"><tspan x="649.02" y="581.58"><a target="_blank" href="https://ourworldindata.org" fill="#777">OurWorldInData.org</a> • <a href="http://creativecommons.org/licenses/by-sa/4.0/deed.en_US" target="_blank" fill="#777">CC BY-SA</a></tspan></text></g></g></svg>

<svg xmlns="http://www.w3.org/2000/svg" version="1.1" style="font-family: 'Helvetica Neue', Helvetica, Arial, sans-serif; font-size: 18px; background-color: white; text-rendering: optimizeLegibility; -webkit-font-smoothing: antialiased;" width="850" height="600"><g class="ChartTab"><g class="HeaderView"><g opacity="0.8" transform="translate(778, 15) scale(0.27)"><a xmlns:xlink="http://www.w3.org/1999/xlink" xlink:href="https://ourworldindata.org" target="_blank"><g><rect x="0" y="0" fill="#1B2543" width="211.2" height="130.1"/><rect x="0" y="112.2" fill="#E63912" width="211.2" height="17.9"/><g><rect x="1.2" y="12.3" fill="none" width="210.2" height="99.2"/><path fill="#FFFFFF" d="M37.8,32.2c0,12.7-7.7,19.4-17.1,19.4c-9.7,0-16.6-7.5-16.6-18.7c0-11.7,7.3-19.3,17.1-19.3 C31.3,13.7,37.8,21.3,37.8,32.2z M9.2,32.8c0,7.9,4.3,14.9,11.8,14.9c7.5,0,11.8-6.9,11.8-15.3c0-7.3-3.8-14.9-11.8-14.9 C13.1,17.5,9.2,24.8,9.2,32.8z"/><path fill="#FFFFFF" d="M62.7,43.8c0,2.7,0.1,5.1,0.2,7.2h-4.3l-0.3-4.3h-0.1c-1.3,2.1-4,4.9-8.8,4.9c-4.2,0-9.1-2.3-9.1-11.6 V24.6h4.8v14.6c0,5,1.5,8.4,5.9,8.4c3.2,0,5.5-2.2,6.3-4.4c0.3-0.7,0.4-1.6,0.4-2.5V24.6h4.8V43.8z"/><path fill="#FFFFFF" d="M67.3,32.8c0-3.1-0.1-5.8-0.2-8.2h4.2l0.2,5.2h0.2c1.2-3.5,4.1-5.8,7.3-5.8c0.5,0,0.9,0.1,1.4,0.2v4.5 c-0.5-0.1-1-0.2-1.6-0.2c-3.4,0-5.8,2.6-6.5,6.2c-0.1,0.7-0.2,1.4-0.2,2.2V51h-4.8V32.8z"/><path fill="#FFFFFF" d="M95.4,51l-9.4-36.8h5l4.4,18.6c1.1,4.6,2.1,9.2,2.7,12.7h0.1c0.6-3.7,1.8-8,3-12.8l4.9-18.5h5l4.5,18.7 c1,4.4,2,8.7,2.6,12.6h0.1c0.8-4,1.8-8.1,3-12.7l4.9-18.5h4.9L120.6,51h-5L111,31.9c-1.1-4.7-1.9-8.3-2.4-12h-0.1 c-0.7,3.7-1.5,7.3-2.8,12L100.4,51H95.4z"/><path fill="#FFFFFF" d="M154.9,37.6c0,9.8-6.8,14-13.2,14c-7.2,0-12.7-5.2-12.7-13.6c0-8.8,5.8-14,13.1-14 C149.8,24,154.9,29.5,154.9,37.6z M133.9,37.9c0,5.8,3.3,10.1,8,10.1c4.6,0,8-4.3,8-10.3c0-4.5-2.2-10.1-7.9-10.1 C136.3,27.6,133.9,32.8,133.9,37.9z"/><path fill="#FFFFFF" d="M158.2,32.8c0-3.1-0.1-5.8-0.2-8.2h4.2l0.2,5.2h0.2c1.2-3.5,4.1-5.8,7.3-5.8c0.5,0,0.9,0.1,1.4,0.2v4.5 c-0.5-0.1-1-0.2-1.6-0.2c-3.4,0-5.8,2.6-6.5,6.2c-0.1,0.7-0.2,1.4-0.2,2.2V51h-4.8V32.8z"/><path fill="#FFFFFF" d="M173.5,12.3h4.8V51h-4.8V12.3z"/><path fill="#FFFFFF" d="M206.5,12.3v31.9c0,2.3,0.1,5,0.2,6.8h-4.3l-0.2-4.6H202c-1.5,2.9-4.7,5.2-9,5.2 c-6.4,0-11.3-5.4-11.3-13.4c-0.1-8.8,5.4-14.2,11.9-14.2c4,0,6.8,1.9,8,4h0.1V12.3H206.5z M201.7,35.4c0-0.6-0.1-1.4-0.2-2 c-0.7-3.1-3.3-5.6-6.9-5.6c-5,0-7.9,4.4-7.9,10.2c0,5.3,2.6,9.8,7.8,9.8c3.2,0,6.2-2.1,7.1-5.7c0.2-0.7,0.2-1.3,0.2-2.1V35.4z"/><path fill="#FFFFFF" d="M42.8,64c0.1,1.6-1.1,2.9-3.1,2.9c-1.7,0-2.9-1.3-2.9-2.9c0-1.7,1.3-3,3-3C41.7,61,42.8,62.3,42.8,64z M37.4,97.8V71.4h4.8v26.4H37.4z"/><path fill="#FFFFFF" d="M47.5,78.6c0-2.7-0.1-5-0.2-7.1h4.3l0.3,4.4h0.1c1.3-2.5,4.4-5,8.8-5c3.7,0,9.4,2.2,9.4,11.2v15.8h-4.8 V82.6c0-4.3-1.6-7.8-6.1-7.8c-3.2,0-5.6,2.2-6.5,4.9c-0.2,0.6-0.3,1.4-0.3,2.2v15.9h-4.8V78.6z"/><path fill="#FFFFFF" d="M84,61.6c2.9-0.4,6.3-0.8,10.1-0.8c6.8,0,11.7,1.6,14.9,4.6c3.3,3,5.2,7.3,5.2,13.2c0,6-1.9,10.9-5.3,14.3 c-3.4,3.4-9.1,5.3-16.3,5.3c-3.4,0-6.2-0.2-8.6-0.4V61.6z M88.8,94.1c1.2,0.2,3,0.3,4.8,0.3c10.2,0,15.7-5.7,15.7-15.6 c0.1-8.7-4.9-14.2-14.9-14.2c-2.5,0-4.3,0.2-5.6,0.5V94.1z"/><path fill="#FFFFFF" d="M132.1,97.8l-0.4-3.3h-0.2c-1.5,2.1-4.3,3.9-8.1,3.9c-5.4,0-8.1-3.8-8.1-7.6c0-6.4,5.7-9.9,15.9-9.8v-0.5 c0-2.2-0.6-6.1-6-6.1c-2.5,0-5,0.8-6.9,2l-1.1-3.2c2.2-1.4,5.4-2.3,8.7-2.3c8.1,0,10.1,5.5,10.1,10.8v9.9c0,2.3,0.1,4.5,0.4,6.3 H132.1z M131.4,84.4c-5.3-0.1-11.2,0.8-11.2,5.9c0,3.1,2.1,4.6,4.5,4.6c3.4,0,5.6-2.2,6.4-4.4c0.2-0.5,0.3-1,0.3-1.5V84.4z"/><path fill="#FFFFFF" d="M146.6,63.9v7.6h6.9v3.7h-6.9v14.2c0,3.3,0.9,5.1,3.6,5.1c1.3,0,2.2-0.2,2.8-0.3l0.2,3.6 c-0.9,0.4-2.4,0.7-4.3,0.7c-2.2,0-4-0.7-5.2-2c-1.4-1.4-1.9-3.8-1.9-6.9V75.1h-4.1v-3.7h4.1v-6.3L146.6,63.9z"/><path fill="#FFFFFF" d="M171.4,97.8l-0.4-3.3h-0.2c-1.5,2.1-4.3,3.9-8.1,3.9c-5.4,0-8.1-3.8-8.1-7.6c0-6.4,5.7-9.9,15.9-9.8v-0.5 c0-2.2-0.6-6.1-6-6.1c-2.5,0-5,0.8-6.9,2l-1.1-3.2c2.2-1.4,5.4-2.3,8.7-2.3c8.1,0,10.1,5.5,10.1,10.8v9.9c0,2.3,0.1,4.5,0.4,6.3 H171.4z M170.7,84.4c-5.3-0.1-11.2,0.8-11.2,5.9c0,3.1,2.1,4.6,4.5,4.6c3.4,0,5.6-2.2,6.4-4.4c0.2-0.5,0.3-1,0.3-1.5V84.4z"/></g></g></a></g><a href="https://ourworldindata.org/grapher/number-of-people-with-autism" target="_blank"><text font-size="27.00" x="15.0" y="36.6" fill="#555"><tspan x="15" y="36.6">Number of people with autism, World</tspan></text></a><text font-size="14.40" x="15.0" y="55.5" fill="#666"><tspan x="15" y="55.519999999999996">Number of people with autism, differentiated by sex. This metric is based on the specific definition of autism, and</tspan><tspan x="15" y="71.36">does not include those with Asperger Syndrome or other autistic spectrum disorders.</tspan></text></g><g class="StackedArea"><defs><clipPath id="boundsClip-2"><rect x="88.526" y="0" width="820" height="925.2"></rect></clipPath></defs><g class="AxisBoxView"><g class="HorizontalAxis"><text x="88.5" y="556.5" fill="#666" text-anchor="middle" font-size="16.2">1990</text><text x="219" y="556.5" fill="#666" text-anchor="middle" font-size="16.2">1995</text><text x="349.4" y="556.5" fill="#666" text-anchor="middle" font-size="16.2">2000</text><text x="479.9" y="556.5" fill="#666" text-anchor="middle" font-size="16.2">2005</text><text x="610.4" y="556.5" fill="#666" text-anchor="middle" font-size="16.2">2010</text><text x="766.9" y="556.5" fill="#666" text-anchor="middle" font-size="16.2">2016</text></g><g class="VerticalAxis"><text x="83.53" y="535.3" fill="#666" dominant-baseline="middle" text-anchor="end" font-size="16.2">0</text><text x="83.53" y="487.1" fill="#666" dominant-baseline="middle" text-anchor="end" font-size="16.2">2 million</text><text x="83.53" y="438.8" fill="#666" dominant-baseline="middle" text-anchor="end" font-size="16.2">4 million</text><text x="83.53" y="390.6" fill="#666" dominant-baseline="middle" text-anchor="end" font-size="16.2">6 million</text><text x="83.53" y="342.4" fill="#666" dominant-baseline="middle" text-anchor="end" font-size="16.2">8 million</text><text x="83.53" y="294.1" fill="#666" dominant-baseline="middle" text-anchor="end" font-size="16.2">10 million</text><text x="83.53" y="245.9" fill="#666" dominant-baseline="middle" text-anchor="end" font-size="16.2">12 million</text><text x="83.53" y="197.7" fill="#666" dominant-baseline="middle" text-anchor="end" font-size="16.2">14 million</text><text x="83.53" y="149.4" fill="#666" dominant-baseline="middle" text-anchor="end" font-size="16.2">16 million</text><text x="83.53" y="101.2" fill="#666" dominant-baseline="middle" text-anchor="end" font-size="16.2">18 million</text></g><g class="AxisGridLines"><line x1="88.53" y1="535.3" x2="766.90" y2="535.3" stroke="#ccc"></line><line x1="88.53" y1="487.1" x2="766.90" y2="487.1" stroke="#ddd" stroke-dasharray="3,2"></line><line x1="88.53" y1="438.8" x2="766.90" y2="438.8" stroke="#ddd" stroke-dasharray="3,2"></line><line x1="88.53" y1="390.6" x2="766.90" y2="390.6" stroke="#ddd" stroke-dasharray="3,2"></line><line x1="88.53" y1="342.4" x2="766.90" y2="342.4" stroke="#ddd" stroke-dasharray="3,2"></line><line x1="88.53" y1="294.1" x2="766.90" y2="294.1" stroke="#ddd" stroke-dasharray="3,2"></line><line x1="88.53" y1="245.9" x2="766.90" y2="245.9" stroke="#ddd" stroke-dasharray="3,2"></line><line x1="88.53" y1="197.7" x2="766.90" y2="197.7" stroke="#ddd" stroke-dasharray="3,2"></line><line x1="88.53" y1="149.4" x2="766.90" y2="149.4" stroke="#ddd" stroke-dasharray="3,2"></line><line x1="88.53" y1="101.2" x2="766.90" y2="101.2" stroke="#ddd" stroke-dasharray="3,2"></line></g><g class="AxisGridLines"><line x1="88.5" y1="535.30" x2="88.5" y2="93.90" stroke="#ddd" stroke-dasharray="3,2"></line><line x1="219" y1="535.30" x2="219" y2="93.90" stroke="#ddd" stroke-dasharray="3,2"></line><line x1="349.4" y1="535.30" x2="349.4" y2="93.90" stroke="#ddd" stroke-dasharray="3,2"></line><line x1="479.9" y1="535.30" x2="479.9" y2="93.90" stroke="#ddd" stroke-dasharray="3,2"></line><line x1="610.4" y1="535.30" x2="610.4" y2="93.90" stroke="#ddd" stroke-dasharray="3,2"></line><line x1="740.8" y1="535.30" x2="740.8" y2="93.90" stroke="#ddd" stroke-dasharray="3,2"></line></g></g><g clip-path="url(#boundsClip-2)"><g class="HeightedLegend clickable"><g class="legendMark"><rect x="771.904" y="148.3" width="63.096000000000004" height="14.4" fill="#fff" opacity="0"></rect><rect x="771.904" y="154.25" width="10" height="2.5" fill="#818282"></rect><text font-size="14.40" x="786.9" y="159.8" fill="#333"><tspan x="786.904" y="159.82000000000002">Female</tspan></text></g><g class="legendMark"><rect x="771.904" y="369" width="46.248000000000005" height="14.4" fill="#fff" opacity="0"></rect><rect x="771.904" y="374.95" width="10" height="2.5" fill="#e6332e"></rect><text font-size="14.40" x="786.9" y="380.5" fill="#333"><tspan x="786.904" y="380.52">Male</tspan></text></g></g><g class="Areas"><rect x="88.526" y="93.9" width="678.378" height="441.4000000000001" opacity="0" fill="rgba(255,255,255,0)"></rect><path stroke-linecap="round" d="M88.5 306L114.6 302.5L140.7 298.6L166.8 294.7L192.9 290.8L219 286.8L245.1 283.2L271.2 279.6L297.3 276.3L323.3 273L349.4 269.5L375.5 266.4L401.6 263.3L427.7 260L453.8 256.7L479.9 253.3L506 250.2L532.1 247.1L558.2 243.7L584.3 240.3L610.4 236.8L636.4 233.7L662.5 230.4L688.6 227.2L714.7 223.9L740.8 220.6L766.9 217.2L766.904 535.3000000000001L88.526 535.3000000000001" fill="#e6332e" fill-opacity="0.7" class="World_0-area"></path><path stroke-linecap="round" d="M88.5 216.3L114.6 211.5L140.7 206.1L166.8 200.7L192.9 195.3L219 189.9L245.1 184.8L271.2 179.9L297.3 175.2L323.3 170.7L349.4 165.8L375.5 161.6L401.6 157.3L427.7 152.7L453.8 148.3L479.9 143.6L506 139.3L532.1 135L558.2 130.4L584.3 125.7L610.4 120.9L636.4 116.6L662.5 112.1L688.6 107.6L714.7 103.2L740.8 98.6L766.9 93.9L766.9 217.2L740.8 220.6L714.7 223.9L688.6 227.2L662.5 230.4L636.4 233.7L610.4 236.8L584.3 240.3L558.2 243.7L532.1 247.1L506 250.2L479.9 253.3L453.8 256.7L427.7 260L401.6 263.3L375.5 266.4L349.4 269.5L323.3 273L297.3 276.3L271.2 279.6L245.1 283.2L219 286.8L192.9 290.8L166.8 294.7L140.7 298.6L114.6 302.5L88.5 306" fill="#818282" fill-opacity="0.7" class="World_1-area"></path><path stroke-linecap="round" d="M88.5 306L114.6 302.5L140.7 298.6L166.8 294.7L192.9 290.8L219 286.8L245.1 283.2L271.2 279.6L297.3 276.3L323.3 273L349.4 269.5L375.5 266.4L401.6 263.3L427.7 260L453.8 256.7L479.9 253.3L506 250.2L532.1 247.1L558.2 243.7L584.3 240.3L610.4 236.8L636.4 233.7L662.5 230.4L688.6 227.2L714.7 223.9L740.8 220.6L766.9 217.2" stroke="rgb(192, 43, 38)" stroke-opacity="0.7" stroke-width="0.5" fill="none" class="World_0-border"></path><path stroke-linecap="round" d="M88.5 216.3L114.6 211.5L140.7 206.1L166.8 200.7L192.9 195.3L219 189.9L245.1 184.8L271.2 179.9L297.3 175.2L323.3 170.7L349.4 165.8L375.5 161.6L401.6 157.3L427.7 152.7L453.8 148.3L479.9 143.6L506 139.3L532.1 135L558.2 130.4L584.3 125.7L610.4 120.9L636.4 116.6L662.5 112.1L688.6 107.6L714.7 103.2L740.8 98.6L766.9 93.9" stroke="rgb(108, 109, 109)" stroke-opacity="0.7" stroke-width="0.5" fill="none" class="World_1-border"></path></g></g></g><g style="fill: #777;" class="SourcesFooter"><g style="fill: #777;" class="clickable"><text font-size="12.60" x="15.0" y="581.6"><tspan x="15" y="581.58">Source: IHME, Global Burden of Disease</tspan></text></g><text font-size="12.60" x="649.0" y="581.6"><tspan x="649.024" y="581.58"><a target='_blank' style='fill: #777;' href='https://ourworldindata.org'>OurWorldInData.org</a> • <a style="fill: #777;" href="http://creativecommons.org/licenses/by-sa/4.0/deed.en_US" target="_blank">CC BY-SA</a></tspan></text></g></g></svg>
